assets/images/icons/home/net_sales_icon.svg

<svg fill="none" height="22" viewBox="0 0 53 22" width="53" xmlns="http://www.w3.org/2000/svg"><circle cx="42" cy="11" r="10.5" stroke="#99ff75"/><path d="m38.1811 17c-.32 0-.48-.16-.48-.48v-9.92c0-.32.16-.48.48-.48h4.544c1.0453 0 1.8453.26133 2.4.784.5546.52267.832 1.22133.832 2.096 0 .52267-.1387.992-.416 1.408-.2667.416-.6454.7253-1.136.928 1.2586.3947 1.888 1.2533 1.888 2.576 0 .576-.128 1.0987-.384 1.568s-.6454.8427-1.168 1.12c-.5227.2667-1.1574.4-1.904.4zm4.416-6.208c.6186 0 1.0933-.1547 1.424-.464.3413-.32.512-.76267.512-1.328 0-.608-.1547-1.04533-.464-1.312-.2987-.26667-.7947-.4-1.488-.4h-3.424v3.504zm.224 5.04c.704 0 1.2213-.176 1.552-.528.3306-.3627.496-.8267.496-1.392 0-.6507-.2027-1.1413-.608-1.472-.4054-.3307-.9707-.496-1.696-.496h-3.408v3.888z" fill="#99ff75"/><g stroke="#99ff75"><path d="m41.5 4v15"/><path d="m14.5938 2.125 13.125 9.375-13.125 9.375v-4.6875h-12.0313c-.29008 0-.56828-.0823-.7734-.2288s-.32035-.3452-.32035-.5525v-7.81245c0-.2072.11523-.40591.32035-.55243.20512-.14651.48332-.22882.7734-.22882h12.0313z" fill="#99ff75" stroke-linecap="round" stroke-linejoin="round"/></g></svg>

<svg width="53" height="22" viewBox="0 0 53 22" fill="none" xmlns="http://www.w3.org/2000/svg">
<circle cx="42" cy="11" r="10.5" stroke="#99FF75"/>
<path d="M38.1811 17C37.8611 17 37.7011 16.84 37.7011 16.52V6.6C37.7011 6.28 37.8611 6.12 38.1811 6.12H42.7251C43.7704 6.12 44.5704 6.38133 45.1251 6.904C45.6797 7.42667 45.9571 8.12533 45.9571 9C45.9571 9.52267 45.8184 9.992 45.5411 10.408C45.2744 10.824 44.8957 11.1333 44.4051 11.336C45.6637 11.7307 46.2931 12.5893 46.2931 13.912C46.2931 14.488 46.1651 15.0107 45.9091 15.48C45.6531 15.9493 45.2637 16.3227 44.7411 16.6C44.2184 16.8667 43.5837 17 42.8371 17H38.1811ZM42.5971 10.792C43.2157 10.792 43.6904 10.6373 44.0211 10.328C44.3624 10.008 44.5331 9.56533 44.5331 9C44.5331 8.392 44.3784 7.95467 44.0691 7.688C43.7704 7.42133 43.2744 7.288 42.5811 7.288H39.1571V10.792H42.5971ZM42.8211 15.832C43.5251 15.832 44.0424 15.656 44.3731 15.304C44.7037 14.9413 44.8691 14.4773 44.8691 13.912C44.8691 13.2613 44.6664 12.7707 44.2611 12.44C43.8557 12.1093 43.2904 11.944 42.5651 11.944H39.1571V15.832H42.8211Z" fill="#99FF75"/>
<line x1="41.5" y1="4" x2="41.5" y2="19" stroke="#99FF75"/>
<path d="M14.5938 2.125L27.7188 11.5L14.5938 20.875V16.1875H2.5625C2.27242 16.1875 1.99422 16.1052 1.7891 15.9587C1.58398 15.8122 1.46875 15.6135 1.46875 15.4062V7.59375C1.46875 7.38655 1.58398 7.18784 1.7891 7.04132C1.99422 6.89481 2.27242 6.8125 2.5625 6.8125H14.5938V2.125Z" fill="#99FF75" stroke="#99FF75" stroke-linecap="round" stroke-linejoin="round"/>
</svg>
